32x32/apps/hamster-applet.svg

<svg height="32" width="32" xmlns="http://www.w3.org/2000/svg"><rect fill="#5584bb" height="28" rx="14" width="28" x="2" y="2"/><path d="m16 2c-7.756 0-14 6.244-14 14 0 .169.02.333.025.5a13.957 13.957 0 0 1 13.975-13.5c7.587 0 13.711 5.98 13.975 13.5.005-.167.025-.331.025-.5 0-7.756-6.244-14-14-14z" fill="#fff" opacity=".2"/><path d="m2.025 16.5c-.006.167-.025.331-.025.5 0 7.756 6.244 14 14 14s14-6.244 14-14c0-.169-.02-.333-.025-.5-.265 7.521-6.388 13.5-13.975 13.5-7.588 0-13.711-5.979-13.975-13.5z" opacity=".2"/><path d="m12 10.077a8 8 0 0 0 -3.367 10.027l13.733-7.929a8 8 0 0 0 -10.366-2.098zm-2.366 11.758a8 8 0 0 0 10.366 2.098 8 8 0 0 0 3.367-10.027z" opacity=".2"/><path d="m12 9.072a8 8 0 0 0 -3.367 10.027l13.733-7.93a8 8 0 0 0 -10.366-2.096zm-2.366 11.758a8 8 0 0 0 10.366 2.098 8 8 0 0 0 3.367-10.028z" fill="#fff"/><path d="m14 5h4v2h-4zm0 22h4v2h-4zm14-12v4h-2v-4zm-22 0v4h-2v-4zm17.073-7.898 2.827 2.829-1.414 1.414-2.828-2.828zm-15.556 15.557 2.828 2.828-1.414 1.414-2.829-2.828zm18.384 1.414-2.828 2.827-1.414-1.414 2.828-2.828zm-15.556-15.556-2.828 2.828-1.415-1.414 2.829-2.829z" opacity=".2"/><path d="m14 4h4v2h-4zm0 22h4v2h-4zm14-12v4h-2v-4zm-22 0v4h-2v-4zm17.073-7.898 2.827 2.829-1.414 1.414-2.828-2.828zm-15.556 15.557 2.828 2.828-1.414 1.414-2.829-2.828zm18.384 1.414-2.828 2.827-1.414-1.414 2.828-2.828zm-15.556-15.556-2.828 2.828-1.415-1.414 2.829-2.829z" fill="#fff"/></svg>

<svg height="32" width="32" xmlns="http://www.w3.org/2000/svg">
    <rect fill="#5584bb" height="28" rx="14" width="28" x="2" y="2"/>
    <path d="M16 2C8.244 2 2 8.244 2 16c0 .169.02.333.025.5A13.957 13.957 0 0 1 16 3c7.587 0 13.711 5.98 13.975 13.5.005-.167.025-.331.025-.5 0-7.756-6.244-14-14-14z" fill="#fff" opacity=".2"/>
    <path d="M2.025 16.5c-.006.167-.025.331-.025.5 0 7.756 6.244 14 14 14s14-6.244 14-14c0-.169-.02-.333-.025-.5C29.71 24.021 23.587 30 16 30A13.957 13.957 0 0 1 2.025 16.5z" opacity=".2"/>
    <path d="M12 10.077a8 8 0 0 0-3.367 10.027l13.733-7.929A8 8 0 0 0 12 10.077zM9.634 21.835A8 8 0 0 0 20 23.933a8 8 0 0 0 3.367-10.027z" opacity=".2"/>
    <path d="M12 9.072a8 8 0 0 0-3.367 10.027l13.733-7.93A8 8 0 0 0 12 9.073zM9.634 20.83A8 8 0 0 0 20 22.928 8 8 0 0 0 23.367 12.9z" fill="#fff"/>
    <path d="M14 5h4v2h-4zm0 22h4v2h-4zm14-12v4h-2v-4zM6 15v4H4v-4zm17.073-7.898L25.9 9.931l-1.414 1.414-2.828-2.828zM7.517 22.659l2.828 2.828-1.414 1.414-2.829-2.828zm18.384 1.414L23.073 26.9l-1.414-1.414 2.828-2.828zM10.345 8.517l-2.828 2.828-1.415-1.414 2.829-2.829z" opacity=".2"/>
    <path d="M14 4h4v2h-4zm0 22h4v2h-4zm14-12v4h-2v-4zM6 14v4H4v-4zm17.073-7.898L25.9 8.931l-1.414 1.414-2.828-2.828zM7.517 21.659l2.828 2.828-1.414 1.414-2.829-2.828zm18.384 1.414L23.073 25.9l-1.414-1.414 2.828-2.828zM10.345 7.517l-2.828 2.828-1.415-1.414 2.829-2.829z" fill="#fff"/>
</svg>
